X:241
T:Dragoon's March. (p)1686.PLFD.241
M:4/4
L:1/8
Q:1/2=100
S:Playford, Dancing Master,7th Ed.,1686
O:England
H:1686.
Z:Chris Partington.
K:G
GA|B2B2B2cB|A2dc B>cB>A|G2GAB2Bc|
d2g>ag2d>e|d6:||:AB|c2c2c2e2|e2e2e2dc|B2Bcd2cB|
A4D2AB|c2c2c2cc|d2ddg2d2|edcBA3G|G6:|
